teeny/outline/adjust-horizontal.svg

<svg viewBox="0 0 15 15" xmlns="http://www.w3.org/2000/svg"><path fill="none" stroke="#000" d="M2.5 7.5H0m15 5h-2.5m2.5-10l-6.5 0m-2-.01H0m4.49 5h10.5m-4.5 5H-.01m10.49-2v4h2v-4h-2Zm-8-5v4h2v-4h-2Zm4-5v4h2v-4h-2Z"/></svg>

<svg width="15" height="15" viewBox="0 0 15 15" fill="none" xmlns="http://www.w3.org/2000/svg">
<path d="M2.5 7.5H0M15 12.5L12.5 12.5M15 2.5L8.5 2.50001M6.5 2.5L1.17223e-06 2.5M4.5 7.5L15 7.5M10.5 12.5H7.35117e-07M10.5 10.5V14.5L12.5 14.5V10.5L10.5 10.5ZM2.5 5.5V9.5H4.5V5.5H2.5ZM6.5 0.5L6.5 4.5H8.5V0.5L6.5 0.5Z" stroke="black"/>
</svg>
